svgs/tips.svg

<svg width="192" height="192" viewBox="0 0 192 192" fill="none" xmlns="http://www.w3.org/2000/svg">
<path d="M46 72.5392C46 44.5728 68.4398 22 96 22C123.56 22 146 44.5728 146 72.5392C146 89.0601 138.165 103.714 126.048 112.938C123.422 114.937 122.062 117.926 121.244 120.337C120.374 122.898 119.777 125.876 119.283 128.844C118.923 131.009 118.609 133.184 118.293 135.377C117.688 139.58 117.073 143.848 116.1 148.231C114.645 154.78 112.616 160.291 109.506 164.103C106.648 167.605 102.629 170 96 170C89.3709 170 85.3522 167.605 82.4943 164.103C79.3841 160.291 77.3551 154.78 75.9004 148.231C74.9269 143.848 74.312 139.58 73.7067 135.377C73.3908 133.184 73.0774 131.009 72.717 128.844C72.2227 125.876 71.6257 122.898 70.7564 120.337C69.9382 117.926 68.5776 114.937 65.9521 112.938C53.8345 103.714 46 89.0601 46 72.5392Z" stroke="black" stroke-width="12"/>
</svg>

<svg width="192" height="192" viewBox="0 0 192 192" fill="none" xmlns="http://www.w3.org/2000/svg"><path d="M46 72.54C46 44.572 68.44 22 96 22s50 22.573 50 50.54c0 16.52-7.835 31.174-19.952 40.398-2.626 1.999-3.986 4.988-4.804 7.399-.87 2.561-1.467 5.539-1.961 8.507a305.12 305.12 0 0 0-.99 6.533c-.605 4.203-1.22 8.471-2.193 12.854-1.455 6.549-3.484 12.06-6.594 15.872C106.648 167.605 102.629 170 96 170c-6.63 0-10.648-2.395-13.506-5.897-3.11-3.812-5.139-9.323-6.594-15.872-.973-4.383-1.588-8.651-2.193-12.854-.316-2.193-.63-4.368-.99-6.533-.494-2.968-1.091-5.946-1.96-8.507-.819-2.411-2.18-5.4-4.805-7.399C53.835 103.714 46 89.06 46 72.539Z" stroke="#000" stroke-width="12"/></svg>
